packages/kaspersky-hexa-ui-icons/src/iconsSVGs/32/Files.svg

<svg xmlns="http://www.w3.org/2000/svg" width="32" height="32" fill="none" viewBox="0 0 32 32"><path fill="#000" fill-rule="evenodd" d="M11 26c-1.6569 0-3-1.3431-3-3V5c0-1.6569 1.3431-3 3-3h7.1716a3 3 0 0 1 2.1213.8787l4.8284 4.8284A3 3 0 0 1 26 9.8284V23c0 1.6569-1.3431 3-3 3zM10 5c0-.5523.4477-1 1-1h6v4c0 1.6569 1.3431 3 3 3h4v12c0 .5523-.4477 1-1 1H11c-.5523 0-1-.4477-1-1zm13.5858 4H20c-.5523 0-1-.4477-1-1V4.4142zM5 14c.5523 0 1 .4477 1 1v10c0 1.6569 1.3431 3 3 3h8c.5523 0 1 .4477 1 1s-.4477 1-1 1H9c-2.7614 0-5-2.2386-5-5V15c0-.5523.4477-1 1-1m8 0c-.5523 0-1 .4477-1 1s.4477 1 1 1h7c.5523 0 1-.4477 1-1s-.4477-1-1-1zm0 4c-.5523 0-1 .4477-1 1s.4477 1 1 1h3c.5523 0 1-.4477 1-1s-.4477-1-1-1z"/></svg>

<svg width="32" height="32" viewBox="0 0 32 32" fill="none" xmlns="http://www.w3.org/2000/svg">
<path d="M12 15C12 14.4477 12.4477 14 13 14H20C20.5523 14 21 14.4477 21 15C21 15.5523 20.5523 16 20 16H13C12.4477 16 12 15.5523 12 15Z" fill="black"/>
<path d="M12 19C12 18.4477 12.4477 18 13 18H16C16.5523 18 17 18.4477 17 19C17 19.5523 16.5523 20 16 20H13C12.4477 20 12 19.5523 12 19Z" fill="black"/>
<path fill-rule="evenodd" clip-rule="evenodd" d="M26 23C26 24.6569 24.6569 26 23 26H11C9.34315 26 8 24.6569 8 23V5C8 3.34314 9.34315 2 11 2H18.1716C18.9672 2 19.7303 2.31607 20.2929 2.87868L25.1213 7.70711C25.6839 8.26972 26 9.03278 26 9.82843V23ZM10 5C10 4.44772 10.4477 4 11 4H17V8C17 9.65685 18.3431 11 20 11H24V23C24 23.5523 23.5523 24 23 24H11C10.4477 24 10 23.5523 10 23V5ZM23.5858 9H20C19.4477 9 19 8.55228 19 8V4.41421L23.5858 9Z" fill="black"/>
<path d="M6 15C6 14.4477 5.55228 14 5 14C4.44772 14 4 14.4477 4 15V25C4 27.7614 6.23858 30 9 30H17C17.5523 30 18 29.5523 18 29C18 28.4477 17.5523 28 17 28H9C7.34315 28 6 26.6569 6 25V15Z" fill="black"/>
</svg>
